svg/chevron_up_box_outline.svg

<svg xmlns="http://www.w3.org/2000/svg" viewBox="0 0 24 24"><path d="M19 3H5a2 2 0 0 0-2 2v14a2 2 0 0 0 2 2h14c1.11 0 2-.89 2-2V5a2 2 0 0 0-2-2m0 16H5V5h14zm-2.41-3.29L12 11.12l-4.59 4.59L6 14.29l6-6 6 6z"/></svg>

<?xml version="1.0" encoding="UTF-8"?><!DOCTYPE svg PUBLIC "-//W3C//DTD SVG 1.1//EN" "http://www.w3.org/Graphics/SVG/1.1/DTD/svg11.dtd"><svg xmlns="http://www.w3.org/2000/svg" xmlns:xlink="http://www.w3.org/1999/xlink" version="1.1" id="mdi-chevron-up-box-outline" width="24" height="24" viewBox="0 0 24 24"><path d="M19,3H5A2,2 0 0,0 3,5V19C3,20.11 3.9,21 5,21H19C20.11,21 21,20.11 21,19V5A2,2 0 0,0 19,3M19,19H5V5H19V19M16.59,15.71L12,11.12L7.41,15.71L6,14.29L12,8.29L18,14.29L16.59,15.71Z" /></svg>
